X:1
T:Title
%%score { ( 1 3 ) | 2 }
L:1/8
Q:1/4=100
M:6/8
K:Eb
V:1 treble nm="Grand Piano"
V:3 treble 
V:2 bass 
V:1
 B2 B c2 G | B2 A A3 | [DF]2 [EG] [FA]2 [Dd] | c B2- B2 z | B2 B [=Ec]2 [CEG] | %5
w: E.~S.~Lorenz * * *|||||
 [CGB]2 [CFA] [CFA]3 | [B,EG]2 [G,E] [B,DG]2 F | F E2- E2 z | B2 B G2 c | B6 | G2 G E2 A | %11
w: ||||||
[M:5/8] G-G- G3 |[M:1/8] G |[M:3/4] [EG][DF] [C=E][DF] [EG][FA] | d2 d d2 [FA] | %15
w: ||||
 [FA]G _G=G [FA][GB] | [Ge]2 [Ge] .[Ge]3 | B2 B G2 c | B6 | G2 G E2 A |[M:5/8] G-G- G3 |[M:1/8] B | %22
w: |||||||
[M:3/4] cc cA Bc | e2 B B2 [C=EA] | [B,EG]2 [G,E] [A,DF]2 [A,DF] | [G,E]6 |] %26
w: ||||
V:2
 [E,G,E]2 [E,G,E] [E,G,E]2 [E,B,E] | [F,B,D]2 [F,B,D] [F,B,D]3 | %2
 [B,,B,]2 [B,,B,] [B,,B,]2 [B,,F,] | [E,A,E] [E,G,E]2- [E,G,E]2 z | [E,G,E]2 [E,G,E] [C,G,]2 C, | %5
 F,2 F, F,3 | B,,2 B,, B,,2 [B,,A,B,] | [E,A,B,] [E,G,B,]2- [E,G,B,]2 z | %8
 [E,G,E]2 [E,G,E] [E,B,E]2 [E,A,E] | [E,G,E]2 [E,E] .[E,E]3 | [E,B,E]2 [E,B,E] [E,G,]2 [E,CE] | %11
[M:5/8] [E,B,E]2 [E,A,] [E,G,]2 |[M:1/8] [E,B,E] | %13
[M:3/4] [B,,B,][B,,B,] [B,,B,][B,,B,] [B,,B,][B,,B,] | [B,F]2 [B,F] [B,F]2[K:bass] [B,,B,] | %15
 [E,B,][E,B,E] [E,=A,E][E,B,E] [E,B,][E,E] | [E,B,]2 [E,B,] .[E,B,]3 | %17
 [E,G,E]2 [E,G,E] [E,B,E]2 [E,A,E] | [E,G,E]2 [E,E] .[E,E]3 | [E,B,E]2 [E,B,E] [E,G,]2 [E,CE] | %20
[M:5/8] [E,B,E]2 [E,A,] [E,G,]2 |[M:1/8] [E,G,E] |[M:3/4] [A,E][A,E] [A,E][A,C] [A,D][A,E] | %23
 [G,B,E]2 [G,C=E] [F,CF]2 A,, | B,,2 B,, B,,2 B,, | E,6 |] %26
V:3
 x6 | x6 | x6 | x6 | x6 | x6 | x6 | x6 | x6 | z2 G .G3 | x6 |[M:5/8] z2 C B,2 |[M:1/8] x | %13
[M:3/4] x6 | x6 | x6 | x6 | x6 | z2 G .G3 | x6 |[M:5/8] z2 C B,2 |[M:1/8] x |[M:3/4] x6 | x6 | x6 | %25
 x6 |] %26

